.files/icons/devices/LTE#1.svg

<svg fill="none" height="48" viewBox="0 0 48 48" width="48" xmlns="http://www.w3.org/2000/svg"><g clip-rule="evenodd" fill="#000" fill-rule="evenodd"><path d="m14.5124 37.8583-2.5546 3.078c-5.00395-4.1531-7.9578-10.3056-7.9578-16.9363 0-6.6216 2.94564-12.7665 7.9377-16.91968l2.5582 3.07498c-4.088 3.4011-6.4959 8.4241-6.4959 13.8447 0 5.428 2.4146 10.4573 6.5124 13.8583zm18.9752 0 2.5546 3.078c5.0039-4.1531 7.9578-10.3056 7.9578-16.9363 0-6.6216-2.9456-12.7665-7.9377-16.91968l-2.5582 3.07498c4.088 3.4011 6.4959 8.4241 6.4959 13.8447 0 5.428-2.4146 10.4573-6.5124 13.8583zm-5.1306-6.1385 2.5448 3.0861c3.2039-2.642 5.0982-6.5712 5.0982-10.8059 0-4.2209-1.8818-8.1386-5.0678-10.7808l-2.5534 3.079c2.2791 1.8901 3.6212 4.6842 3.6212 7.7018 0 3.0275-1.351 5.8298-3.643 7.7198zm-11.2588 3.0861 2.5448-3.0861c-2.292-1.89-3.643-4.6923-3.643-7.7198 0-3.0176 1.3421-5.8117 3.6212-7.7018l-2.5534-3.079c-3.186 2.6422-5.0678 6.5599-5.0678 10.7808 0 4.2347 1.8943 8.1639 5.0982 10.8059z" opacity=".3"/><path d="m24 28c2.2091 0 4-1.7909 4-4s-1.7909-4-4-4-4 1.7909-4 4 1.7909 4 4 4z"/></g></svg>

<svg width="48" height="48" viewBox="0 0 48 48" fill="none" xmlns="http://www.w3.org/2000/svg">
<path opacity="0.3" fill-rule="evenodd" clip-rule="evenodd" d="M14.5124 37.8583L11.9578 40.9363C6.95385 36.7832 4 30.6307 4 24C4 17.3784 6.94564 11.2335 11.9377 7.08032L14.4959 10.1553C10.4079 13.5564 8 18.5794 8 24C8 29.428 10.4146 34.4573 14.5124 37.8583ZM33.4876 37.8583L36.0422 40.9363C41.0461 36.7832 44 30.6307 44 24C44 17.3784 41.0544 11.2335 36.0623 7.08032L33.5041 10.1553C37.5921 13.5564 40 18.5794 40 24C40 29.428 37.5854 34.4573 33.4876 37.8583ZM28.357 31.7198L30.9018 34.8059C34.1057 32.1639 36 28.2347 36 24C36 19.7791 34.1182 15.8614 30.9322 13.2192L28.3788 16.2982C30.6579 18.1883 32 20.9824 32 24C32 27.0275 30.649 29.8298 28.357 31.7198ZM17.0982 34.8059L19.643 31.7198C17.351 29.8298 16 27.0275 16 24C16 20.9824 17.3421 18.1883 19.6212 16.2982L17.0678 13.2192C13.8818 15.8614 12 19.7791 12 24C12 28.2347 13.8943 32.1639 17.0982 34.8059Z" fill="black"/>
<path fill-rule="evenodd" clip-rule="evenodd" d="M24 28C26.2091 28 28 26.2091 28 24C28 21.7909 26.2091 20 24 20C21.7909 20 20 21.7909 20 24C20 26.2091 21.7909 28 24 28Z" fill="black"/>
</svg>
